X:1
T:Title
%%score ( 1 2 ) ( 3 4 )
L:1/8
Q:1/4=105
M:6/8
K:F
V:1 treble nm="Strings 1, Soprano"
V:2 treble 
V:3 bass nm="Strings 1, Bass"
V:4 bass 
V:1
 z3 z2 [FA] | [Fc]2 [Fc] [Fc]2 [Fd] | [Fc]2 [GB] [FA]2 [CF] | [FA]2 [FA] [FA]2 [FB] | %4
w: 1.~For~|me~ the~ bless ed~|Sav ior~ came,~ His~|great~ sal va tion~|
 [FA]2 [EG] [DF]2 [DF] | [DF]2 [DF] [DF]2 [DG] | [DF]2 [B,D] [A,C]2 [CF] | [FA]2 [FB] [EA]2 [EG] | %8
w: to~ pro claim;~ Oh,~|glo ry~ to~ His~|pre cious~ name!~ It~|sat is fies~ my~|
 F3- F2 [FA] | [Fc]2 [Fd] [Fc]2 [FA] | c6 | [FA]2 [FB] [FA]2 F | A6 | [DF]2 [DG] [DF]2 [B,D] | %14
w: soul.~ * *||||||
 [A,C]2 [A,C] [CF]2 [DG] | [CA]2 [CB] [CA]2 [EG] | F2 D .C3 |] %17
w: |||
V:2
 x6 | x6 | x6 | x6 | x6 | x6 | x6 | x6 | x6 | x6 | E2 E F2 [CF] | x6 | F2 F F2 [_EF] | x6 | x6 | %15
 x6 | x6 |] %17
V:3
 z3 z2 F, | [F,A,]2 [F,A,] [F,A,]2 [F,B,] | [F,A,]2 [C,C] [F,C]2 [F,A,] | %3
 [F,C]2 [F,C] [F,C]2 [F,D] | [F,C]2 [C,C] [D,A,]2 [D,A,] | [B,,B,]2 [B,,B,] [B,,B,]2 [B,,B,] | %6
 [B,,B,]2 [D,F,] F,2 [F,A,] | [F,C]2 [B,,D] [C,C]2 [C,B,] | [F,,F,A,]3- [F,,F,A,]2 F, | %9
 [F,A,]2 [F,B,] [F,A,]2 [F,C] | [C,B,]2 [C,B,] [F,A,]2 [F,A,] | [F,C]2 [F,D] [F,C]2 [F,A,] | %12
 [F,C]2 [F,C] [F,C]2 [A,,C] | [B,,B,]2 [B,,B,] [B,,B,]2 [D,F,] | F,2 F, [A,,F,]2 [B,,F,] | %15
 [C,F,]2 [C,G,] [C,F,]2 [C,B,] | A,2 B, .A,3 |] %17
V:4
 x6 | x6 | x6 | x6 | x6 | x6 | x6 | x6 | x6 | x6 | x6 | x6 | x6 | x6 | x6 | x6 | [F,,F,]6 |] %17

